src/img/icons/cloud.svg

<svg fill="none" height="19" viewBox="0 0 26 19" width="26" xmlns="http://www.w3.org/2000/svg"><path d="m4.25 7.35156c0-.11718 0-.23437 0-.35156 0-3.4375 2.77344-6.25 6.25-6.25 2.3047 0 4.3359 1.28906 5.3906 3.16406.586-.42968 1.3282-.66406 2.1094-.66406 2.0703 0 3.75 1.67969 3.75 3.75 0 .50781-.1172.9375-.2734 1.36719 2.3046.46875 4.0234 2.50001 4.0234 4.88281 0 2.7734-2.2656 5-5 5h-14.375c-3.125 0-5.625-2.5-5.625-5.625 0-2.4219 1.5625-4.53125 3.75-5.27344z" fill="#fff"/></svg>

<svg width="26" height="19" viewBox="0 0 26 19" fill="none" xmlns="http://www.w3.org/2000/svg">
<path d="M4.25 7.35156C4.25 7.23438 4.25 7.11719 4.25 7C4.25 3.5625 7.02344 0.75 10.5 0.75C12.8047 0.75 14.8359 2.03906 15.8906 3.91406C16.4766 3.48438 17.2188 3.25 18 3.25C20.0703 3.25 21.75 4.92969 21.75 7C21.75 7.50781 21.6328 7.9375 21.4766 8.36719C23.7812 8.83594 25.5 10.8672 25.5 13.25C25.5 16.0234 23.2344 18.25 20.5 18.25H6.125C3 18.25 0.5 15.75 0.5 12.625C0.5 10.2031 2.0625 8.09375 4.25 7.35156Z" fill="white"/>
</svg>
